X: 29
T: St. Anne's Reel 
M: 4/4
L: 1/8
R: Reel
K: D
e|fedf edcB|(3ABA FA DAFA|B2 GB EBGB|(3ABA FA DAFA|
fedf edcB|(3ABA FA DAFA|B2 ed cABc|eddc d3 :|
e|f2 fg fedc|Bggf g2 gf|edcB ABcd|baag a2 ag|
f2 fg fedc|Bggf g2 gf|edcB ABcd|eddc d3 :|
